images/3233898.svg

<?xml version="1.0" encoding="UTF-8"?>
<svg xmlns="http://www.w3.org/2000/svg" xmlns:xlink="http://www.w3.org/1999/xlink" width="300pt" height="300pt" viewBox="0 0 300 300" version="1.1">
<defs>
<g>
<symbol overflow="visible" id="glyph0-0">
<path style="stroke:none;" d="M 0.453125 1.59375 L 0.453125 -6.34375 L 4.953125 -6.34375 L 4.953125 1.59375 Z M 0.953125 1.09375 L 4.453125 1.09375 L 4.453125 -5.84375 L 0.953125 -5.84375 Z M 0.953125 1.09375 "/>
</symbol>
<symbol overflow="visible" id="glyph0-1">
<path style="stroke:none;" d="M 0.890625 -6.5625 L 2.078125 -6.5625 L 4.984375 -1.078125 L 4.984375 -6.5625 L 5.84375 -6.5625 L 5.84375 0 L 4.65625 0 L 1.75 -5.484375 L 1.75 0 L 0.890625 0 Z M 0.890625 -6.5625 "/>
</symbol>
<symbol overflow="visible" id="glyph0-2">
<path style="stroke:none;" d="M 0.890625 -6.5625 L 1.765625 -6.5625 L 1.765625 -3.875 L 5 -3.875 L 5 -6.5625 L 5.890625 -6.5625 L 5.890625 0 L 5 0 L 5 -3.125 L 1.765625 -3.125 L 1.765625 0 L 0.890625 0 Z M 0.890625 -6.5625 "/>
</symbol>
<symbol overflow="visible" id="glyph0-3">
<path style="stroke:none;" d="M 3.546875 -5.953125 C 2.898438 -5.953125 2.382812 -5.710938 2 -5.234375 C 1.625 -4.753906 1.4375 -4.101562 1.4375 -3.28125 C 1.4375 -2.445312 1.625 -1.789062 2 -1.3125 C 2.382812 -0.832031 2.898438 -0.59375 3.546875 -0.59375 C 4.191406 -0.59375 4.703125 -0.832031 5.078125 -1.3125 C 5.453125 -1.789062 5.640625 -2.445312 5.640625 -3.28125 C 5.640625 -4.101562 5.453125 -4.753906 5.078125 -5.234375 C 4.703125 -5.710938 4.191406 -5.953125 3.546875 -5.953125 Z M 3.546875 -6.6875 C 4.460938 -6.6875 5.195312 -6.375 5.75 -5.75 C 6.300781 -5.132812 6.578125 -4.3125 6.578125 -3.28125 C 6.578125 -2.238281 6.300781 -1.410156 5.75 -0.796875 C 5.195312 -0.179688 4.460938 0.125 3.546875 0.125 C 2.617188 0.125 1.878906 -0.179688 1.328125 -0.796875 C 0.773438 -1.410156 0.5 -2.238281 0.5 -3.28125 C 0.5 -4.3125 0.773438 -5.132812 1.328125 -5.75 C 1.878906 -6.375 2.617188 -6.6875 3.546875 -6.6875 Z M 3.546875 -6.6875 "/>
</symbol>
</g>
</defs>
<g id="surface54233">
<rect x="0" y="0" width="300" height="300" style="fill:rgb(100%,100%,100%);fill-opacity:1;stroke:none;"/>
<path style="fill:none;stroke-width:1.2;stroke-linecap:butt;stroke-linejoin:miter;stroke:rgb(0%,0%,0%);stroke-opacity:1;stroke-miterlimit:10;" d="M 264.75 76.015625 L 246.136719 87.941406 "/>
<path style="fill:none;stroke-width:1.2;stroke-linecap:butt;stroke-linejoin:miter;stroke:rgb(0%,0%,0%);stroke-opacity:1;stroke-miterlimit:10;" d="M 246.136719 87.941406 L 247.160156 110.023438 "/>
<path style="fill:none;stroke-width:1.2;stroke-linecap:butt;stroke-linejoin:miter;stroke:rgb(0%,0%,0%);stroke-opacity:1;stroke-miterlimit:10;" d="M 241.042969 90.390625 L 241.859375 108.058594 "/>
<path style="fill:none;stroke-width:1.2;stroke-linecap:butt;stroke-linejoin:miter;stroke:rgb(0%,0%,100%);stroke-opacity:1;stroke-miterlimit:10;" d="M 226.5 77.785156 L 236.316406 82.863281 "/>
<path style="fill:none;stroke-width:1.2;stroke-linecap:butt;stroke-linejoin:miter;stroke:rgb(0%,0%,0%);stroke-opacity:1;stroke-miterlimit:10;" d="M 236.316406 82.863281 L 246.136719 87.941406 "/>
<path style="fill:none;stroke-width:1.2;stroke-linecap:butt;stroke-linejoin:miter;stroke:rgb(0%,0%,0%);stroke-opacity:1;stroke-miterlimit:10;" d="M 247.160156 110.023438 L 237.851562 115.988281 "/>
<path style="fill:none;stroke-width:1.2;stroke-linecap:butt;stroke-linejoin:miter;stroke:rgb(0%,0%,100%);stroke-opacity:1;stroke-miterlimit:10;" d="M 237.851562 115.988281 L 228.546875 121.953125 "/>
<path style="fill:none;stroke-width:1.2;stroke-linecap:butt;stroke-linejoin:miter;stroke:rgb(0%,0%,100%);stroke-opacity:1;stroke-miterlimit:10;" d="M 228.546875 121.953125 L 218.726562 116.875 "/>
<path style="fill:none;stroke-width:1.2;stroke-linecap:butt;stroke-linejoin:miter;stroke:rgb(0%,0%,0%);stroke-opacity:1;stroke-miterlimit:10;" d="M 218.726562 116.875 L 208.910156 111.796875 "/>
<path style="fill:none;stroke-width:1.2;stroke-linecap:butt;stroke-linejoin:miter;stroke:rgb(0%,0%,100%);stroke-opacity:1;stroke-miterlimit:10;" d="M 228.972656 116.316406 L 221.117188 112.253906 "/>
<path style="fill:none;stroke-width:1.2;stroke-linecap:butt;stroke-linejoin:miter;stroke:rgb(0%,0%,0%);stroke-opacity:1;stroke-miterlimit:10;" d="M 221.117188 112.253906 L 213.261719 108.191406 "/>
<path style=" stroke:none;fill-rule:nonzero;fill:rgb(100%,100%,100%);fill-opacity:1;" d="M 225.546875 116.453125 L 232.546875 116.453125 L 232.546875 127.453125 L 225.546875 127.453125 Z M 225.546875 116.453125 "/>
<g style="fill:rgb(0%,0%,100%);fill-opacity:1;">
  <use xlink:href="#glyph0-1" x="225.546875" y="125.116211"/>
</g>
<path style="fill:none;stroke-width:1.2;stroke-linecap:butt;stroke-linejoin:miter;stroke:rgb(0%,0%,0%);stroke-opacity:1;stroke-miterlimit:10;" d="M 208.910156 111.796875 L 207.886719 89.710938 "/>
<path style="fill:none;stroke-width:1.2;stroke-linecap:butt;stroke-linejoin:miter;stroke:rgb(0%,0%,0%);stroke-opacity:1;stroke-miterlimit:10;" d="M 208.910156 111.796875 L 190.296875 123.722656 "/>
<path style="fill:none;stroke-width:1.2;stroke-linecap:butt;stroke-linejoin:miter;stroke:rgb(0%,0%,0%);stroke-opacity:1;stroke-miterlimit:10;" d="M 207.886719 89.710938 L 217.191406 83.75 "/>
<path style="fill:none;stroke-width:1.2;stroke-linecap:butt;stroke-linejoin:miter;stroke:rgb(0%,0%,100%);stroke-opacity:1;stroke-miterlimit:10;" d="M 217.191406 83.75 L 226.5 77.785156 "/>
<path style="fill:none;stroke-width:1.2;stroke-linecap:butt;stroke-linejoin:miter;stroke:rgb(0%,0%,0%);stroke-opacity:1;stroke-miterlimit:10;" d="M 212.554688 92.898438 L 220 88.128906 "/>
<path style="fill:none;stroke-width:1.2;stroke-linecap:butt;stroke-linejoin:miter;stroke:rgb(0%,0%,100%);stroke-opacity:1;stroke-miterlimit:10;" d="M 220 88.128906 L 227.445312 83.359375 "/>
<path style=" stroke:none;fill-rule:nonzero;fill:rgb(100%,100%,100%);fill-opacity:1;" d="M 223.5 72.285156 L 230.5 72.285156 L 230.5 83.285156 L 223.5 83.285156 Z M 223.5 72.285156 "/>
<g style="fill:rgb(0%,0%,100%);fill-opacity:1;">
  <use xlink:href="#glyph0-1" x="223.5" y="80.948242"/>
</g>
<path style="fill:none;stroke-width:1.2;stroke-linecap:butt;stroke-linejoin:miter;stroke:rgb(0%,0%,0%);stroke-opacity:1;stroke-miterlimit:10;" d="M 190.296875 123.722656 L 190.804688 134.765625 "/>
<path style="fill:none;stroke-width:1.2;stroke-linecap:butt;stroke-linejoin:miter;stroke:rgb(0%,0%,100%);stroke-opacity:1;stroke-miterlimit:10;" d="M 190.804688 134.765625 L 191.316406 145.808594 "/>
<path style="fill:none;stroke-width:1.2;stroke-linecap:butt;stroke-linejoin:miter;stroke:rgb(0%,0%,100%);stroke-opacity:1;stroke-miterlimit:10;" d="M 191.316406 145.808594 L 182.011719 151.769531 "/>
<path style="fill:none;stroke-width:1.2;stroke-linecap:butt;stroke-linejoin:miter;stroke:rgb(0%,0%,0%);stroke-opacity:1;stroke-miterlimit:10;" d="M 182.011719 151.769531 L 172.703125 157.734375 "/>
<path style=" stroke:none;fill-rule:nonzero;fill:rgb(100%,100%,100%);fill-opacity:1;" d="M 184.316406 140.308594 L 198.316406 140.308594 L 198.316406 151.308594 L 184.316406 151.308594 Z M 184.316406 140.308594 "/>
<g style="fill:rgb(0%,0%,100%);fill-opacity:1;">
  <use xlink:href="#glyph0-1" x="184.316406" y="148.97168"/>
  <use xlink:href="#glyph0-2" x="191.293945" y="148.97168"/>
</g>
<path style="fill:none;stroke-width:1.2;stroke-linecap:butt;stroke-linejoin:miter;stroke:rgb(0%,0%,0%);stroke-opacity:1;stroke-miterlimit:10;" d="M 172.703125 157.734375 L 162.886719 152.65625 "/>
<path style="fill:none;stroke-width:1.2;stroke-linecap:butt;stroke-linejoin:miter;stroke:rgb(0%,0%,100%);stroke-opacity:1;stroke-miterlimit:10;" d="M 162.886719 152.65625 L 153.066406 147.578125 "/>
<path style="fill:none;stroke-width:1.2;stroke-linecap:butt;stroke-linejoin:miter;stroke:rgb(0%,0%,0%);stroke-opacity:1;stroke-miterlimit:10;" d="M 168.351562 161.339844 L 160.496094 157.277344 "/>
<path style="fill:none;stroke-width:1.2;stroke-linecap:butt;stroke-linejoin:miter;stroke:rgb(0%,0%,100%);stroke-opacity:1;stroke-miterlimit:10;" d="M 160.496094 157.277344 L 152.640625 153.214844 "/>
<path style="fill:none;stroke-width:1.2;stroke-linecap:butt;stroke-linejoin:miter;stroke:rgb(0%,0%,0%);stroke-opacity:1;stroke-miterlimit:10;" d="M 173.726562 179.820312 L 172.703125 157.734375 "/>
<path style="fill:none;stroke-width:1.2;stroke-linecap:butt;stroke-linejoin:miter;stroke:rgb(0%,0%,100%);stroke-opacity:1;stroke-miterlimit:10;" d="M 153.066406 147.578125 L 143.761719 153.542969 "/>
<path style="fill:none;stroke-width:1.2;stroke-linecap:butt;stroke-linejoin:miter;stroke:rgb(0%,0%,0%);stroke-opacity:1;stroke-miterlimit:10;" d="M 143.761719 153.542969 L 134.453125 159.507812 "/>
<path style=" stroke:none;fill-rule:nonzero;fill:rgb(100%,100%,100%);fill-opacity:1;" d="M 150.066406 142.078125 L 157.066406 142.078125 L 157.066406 153.078125 L 150.066406 153.078125 Z M 150.066406 142.078125 "/>
<g style="fill:rgb(0%,0%,100%);fill-opacity:1;">
  <use xlink:href="#glyph0-1" x="150.066406" y="150.741211"/>
</g>
<path style="fill:none;stroke-width:1.2;stroke-linecap:butt;stroke-linejoin:miter;stroke:rgb(0%,0%,0%);stroke-opacity:1;stroke-miterlimit:10;" d="M 134.453125 159.507812 L 134.964844 170.546875 "/>
<path style="fill:none;stroke-width:1.2;stroke-linecap:butt;stroke-linejoin:miter;stroke:rgb(0%,0%,100%);stroke-opacity:1;stroke-miterlimit:10;" d="M 134.964844 170.546875 L 135.476562 181.589844 "/>
<path style="fill:none;stroke-width:1.2;stroke-linecap:butt;stroke-linejoin:miter;stroke:rgb(0%,0%,0%);stroke-opacity:1;stroke-miterlimit:10;" d="M 139.753906 161.472656 L 140.160156 170.308594 "/>
<path style="fill:none;stroke-width:1.2;stroke-linecap:butt;stroke-linejoin:miter;stroke:rgb(0%,0%,100%);stroke-opacity:1;stroke-miterlimit:10;" d="M 140.160156 170.308594 L 140.570312 179.140625 "/>
<path style="fill:none;stroke-width:1.2;stroke-linecap:butt;stroke-linejoin:miter;stroke:rgb(0%,0%,0%);stroke-opacity:1;stroke-miterlimit:10;" d="M 134.453125 159.507812 L 114.816406 149.347656 "/>
<path style="fill:none;stroke-width:1.2;stroke-linecap:butt;stroke-linejoin:miter;stroke:rgb(0%,0%,100%);stroke-opacity:1;stroke-miterlimit:10;" d="M 135.476562 181.589844 L 145.292969 186.667969 "/>
<path style="fill:none;stroke-width:1.2;stroke-linecap:butt;stroke-linejoin:miter;stroke:rgb(0%,0%,0%);stroke-opacity:1;stroke-miterlimit:10;" d="M 145.292969 186.667969 L 155.113281 191.746094 "/>
<path style=" stroke:none;fill-rule:nonzero;fill:rgb(100%,100%,100%);fill-opacity:1;" d="M 132.476562 176.089844 L 139.476562 176.089844 L 139.476562 187.089844 L 132.476562 187.089844 Z M 132.476562 176.089844 "/>
<g style="fill:rgb(0%,0%,100%);fill-opacity:1;">
  <use xlink:href="#glyph0-1" x="132.476562" y="184.75293"/>
</g>
<path style="fill:none;stroke-width:1.2;stroke-linecap:butt;stroke-linejoin:miter;stroke:rgb(0%,0%,0%);stroke-opacity:1;stroke-miterlimit:10;" d="M 155.113281 191.746094 L 156.136719 213.828125 "/>
<path style="fill:none;stroke-width:1.2;stroke-linecap:butt;stroke-linejoin:miter;stroke:rgb(0%,0%,0%);stroke-opacity:1;stroke-miterlimit:10;" d="M 160.410156 193.714844 L 161.230469 211.378906 "/>
<path style="fill:none;stroke-width:1.2;stroke-linecap:butt;stroke-linejoin:miter;stroke:rgb(0%,0%,0%);stroke-opacity:1;stroke-miterlimit:10;" d="M 173.726562 179.820312 L 155.113281 191.746094 "/>
<path style="fill:none;stroke-width:1.2;stroke-linecap:butt;stroke-linejoin:miter;stroke:rgb(0%,0%,0%);stroke-opacity:1;stroke-miterlimit:10;" d="M 156.136719 213.828125 L 175.773438 223.984375 "/>
<path style="fill:none;stroke-width:1.2;stroke-linecap:butt;stroke-linejoin:miter;stroke:rgb(0%,0%,0%);stroke-opacity:1;stroke-miterlimit:10;" d="M 175.773438 223.984375 L 194.386719 212.058594 "/>
<path style="fill:none;stroke-width:1.2;stroke-linecap:butt;stroke-linejoin:miter;stroke:rgb(0%,0%,0%);stroke-opacity:1;stroke-miterlimit:10;" d="M 174.828125 218.414062 L 189.71875 208.871094 "/>
<path style="fill:none;stroke-width:1.2;stroke-linecap:butt;stroke-linejoin:miter;stroke:rgb(0%,0%,0%);stroke-opacity:1;stroke-miterlimit:10;" d="M 194.386719 212.058594 L 193.363281 189.976562 "/>
<path style="fill:none;stroke-width:1.2;stroke-linecap:butt;stroke-linejoin:miter;stroke:rgb(0%,0%,0%);stroke-opacity:1;stroke-miterlimit:10;" d="M 193.363281 189.976562 L 173.726562 179.820312 "/>
<path style="fill:none;stroke-width:1.2;stroke-linecap:butt;stroke-linejoin:miter;stroke:rgb(0%,0%,0%);stroke-opacity:1;stroke-miterlimit:10;" d="M 189.007812 193.578125 L 173.300781 185.453125 "/>
<path style="fill:none;stroke-width:1.2;stroke-linecap:butt;stroke-linejoin:miter;stroke:rgb(0%,0%,0%);stroke-opacity:1;stroke-miterlimit:10;" d="M 114.816406 149.347656 L 113.796875 127.265625 "/>
<path style="fill:none;stroke-width:1.2;stroke-linecap:butt;stroke-linejoin:miter;stroke:rgb(0%,0%,0%);stroke-opacity:1;stroke-miterlimit:10;" d="M 109.519531 147.382812 L 108.703125 129.714844 "/>
<path style="fill:none;stroke-width:1.2;stroke-linecap:butt;stroke-linejoin:miter;stroke:rgb(0%,0%,0%);stroke-opacity:1;stroke-miterlimit:10;" d="M 96.203125 161.277344 L 114.816406 149.347656 "/>
<path style="fill:none;stroke-width:1.2;stroke-linecap:butt;stroke-linejoin:miter;stroke:rgb(0%,0%,0%);stroke-opacity:1;stroke-miterlimit:10;" d="M 113.796875 127.265625 L 94.160156 117.109375 "/>
<path style="fill:none;stroke-width:1.2;stroke-linecap:butt;stroke-linejoin:miter;stroke:rgb(0%,0%,0%);stroke-opacity:1;stroke-miterlimit:10;" d="M 94.160156 117.109375 L 75.546875 129.035156 "/>
<path style="fill:none;stroke-width:1.2;stroke-linecap:butt;stroke-linejoin:miter;stroke:rgb(0%,0%,0%);stroke-opacity:1;stroke-miterlimit:10;" d="M 95.105469 122.683594 L 80.210938 132.222656 "/>
<path style="fill:none;stroke-width:1.2;stroke-linecap:butt;stroke-linejoin:miter;stroke:rgb(0%,0%,0%);stroke-opacity:1;stroke-miterlimit:10;" d="M 75.546875 129.035156 L 76.566406 151.121094 "/>
<path style="fill:none;stroke-width:1.2;stroke-linecap:butt;stroke-linejoin:miter;stroke:rgb(0%,0%,0%);stroke-opacity:1;stroke-miterlimit:10;" d="M 75.546875 129.035156 L 55.910156 118.878906 "/>
<path style="fill:none;stroke-width:1.2;stroke-linecap:butt;stroke-linejoin:miter;stroke:rgb(0%,0%,0%);stroke-opacity:1;stroke-miterlimit:10;" d="M 76.566406 151.121094 L 96.203125 161.277344 "/>
<path style="fill:none;stroke-width:1.2;stroke-linecap:butt;stroke-linejoin:miter;stroke:rgb(0%,0%,0%);stroke-opacity:1;stroke-miterlimit:10;" d="M 80.921875 147.515625 L 96.628906 155.640625 "/>
<path style="fill:none;stroke-width:1.2;stroke-linecap:butt;stroke-linejoin:miter;stroke:rgb(0%,0%,0%);stroke-opacity:1;stroke-miterlimit:10;" d="M 54.503906 116.691406 L 45.199219 122.65625 "/>
<path style="fill:none;stroke-width:1.2;stroke-linecap:butt;stroke-linejoin:miter;stroke:rgb(100%,0%,0%);stroke-opacity:1;stroke-miterlimit:10;" d="M 45.199219 122.65625 L 35.890625 128.617188 "/>
<path style="fill:none;stroke-width:1.2;stroke-linecap:butt;stroke-linejoin:miter;stroke:rgb(0%,0%,0%);stroke-opacity:1;stroke-miterlimit:10;" d="M 57.3125 121.070312 L 48.003906 127.035156 "/>
<path style="fill:none;stroke-width:1.2;stroke-linecap:butt;stroke-linejoin:miter;stroke:rgb(100%,0%,0%);stroke-opacity:1;stroke-miterlimit:10;" d="M 48.003906 127.035156 L 38.699219 132.996094 "/>
<path style="fill:none;stroke-width:1.2;stroke-linecap:butt;stroke-linejoin:miter;stroke:rgb(0%,0%,0%);stroke-opacity:1;stroke-miterlimit:10;" d="M 55.910156 118.878906 L 55.398438 107.839844 "/>
<path style="fill:none;stroke-width:1.2;stroke-linecap:butt;stroke-linejoin:miter;stroke:rgb(0%,0%,100%);stroke-opacity:1;stroke-miterlimit:10;" d="M 55.398438 107.839844 L 54.886719 96.796875 "/>
<path style=" stroke:none;fill-rule:nonzero;fill:rgb(100%,100%,100%);fill-opacity:1;" d="M 29.296875 125.308594 L 37.296875 125.308594 L 37.296875 136.308594 L 29.296875 136.308594 Z M 29.296875 125.308594 "/>
<g style="fill:rgb(100%,0%,0%);fill-opacity:1;">
  <use xlink:href="#glyph0-3" x="29.296875" y="133.97168"/>
</g>
<path style="fill:none;stroke-width:1.2;stroke-linecap:butt;stroke-linejoin:miter;stroke:rgb(0%,0%,100%);stroke-opacity:1;stroke-miterlimit:10;" d="M 54.886719 96.796875 L 45.066406 91.71875 "/>
<path style="fill:none;stroke-width:1.2;stroke-linecap:butt;stroke-linejoin:miter;stroke:rgb(0%,0%,0%);stroke-opacity:1;stroke-miterlimit:10;" d="M 45.066406 91.71875 L 35.25 86.640625 "/>
<path style="fill:none;stroke-width:1.2;stroke-linecap:butt;stroke-linejoin:miter;stroke:rgb(0%,0%,100%);stroke-opacity:1;stroke-miterlimit:10;" d="M 54.886719 96.796875 L 64.191406 90.832031 "/>
<path style="fill:none;stroke-width:1.2;stroke-linecap:butt;stroke-linejoin:miter;stroke:rgb(0%,0%,0%);stroke-opacity:1;stroke-miterlimit:10;" d="M 64.191406 90.832031 L 73.5 84.871094 "/>
<path style=" stroke:none;fill-rule:nonzero;fill:rgb(100%,100%,100%);fill-opacity:1;" d="M 51.886719 91.296875 L 58.886719 91.296875 L 58.886719 102.296875 L 51.886719 102.296875 Z M 51.886719 91.296875 "/>
<g style="fill:rgb(0%,0%,100%);fill-opacity:1;">
  <use xlink:href="#glyph0-1" x="51.886719" y="99.959961"/>
</g>
</g>
</svg>

<svg xmlns="http://www.w3.org/2000/svg" xmlns:xlink="http://www.w3.org/1999/xlink" width="300pt" height="300pt" viewBox="0 0 300 300"><defs><symbol overflow="visible"><path d="M.453 1.594v-7.938h4.5v7.938zm.5-.5h3.5v-6.938h-3.5zm0 0"/></symbol><symbol overflow="visible" id="a"><path d="M.89-6.563H2.08l2.906 5.485v-5.484h.86V0H4.656L1.75-5.484V0H.89zm0 0"/></symbol><symbol overflow="visible" id="b"><path d="M.89-6.563h.876v2.688H5v-2.688h.89V0H5v-3.125H1.766V0H.89zm0 0"/></symbol><symbol overflow="visible" id="c"><path d="M3.547-5.953c-.65 0-1.164.242-1.547.72-.375.48-.563 1.13-.563 1.952 0 .835.188 1.49.563 1.967.383.48.898.72 1.547.72.644 0 1.156-.24 1.53-.72.376-.476.564-1.132.564-1.968 0-.822-.187-1.474-.562-1.954-.375-.477-.887-.72-1.53-.72zm0-.734c.914 0 1.648.312 2.203.937.55.617.828 1.438.828 2.47 0 1.042-.277 1.87-.828 2.483-.555.617-1.29.922-2.203.922-.93 0-1.668-.305-2.22-.922C.774-1.41.5-2.237.5-3.28c0-1.033.273-1.853.828-2.47.55-.625 1.29-.938 2.22-.938zm0 0"/></symbol></defs><g><path fill="#fff" d="M0 0h300v300H0z"/><path d="M264.75 76.016L246.137 87.94M246.137 87.94l1.023 22.083M241.043 90.39l.816 17.67" stroke-width="1.2" stroke="#000" stroke-miterlimit="10" fill="none"/><path d="M226.5 77.785l9.816 5.078" stroke-width="1.2" stroke="#00f" stroke-miterlimit="10" fill="none"/><path d="M236.316 82.863l9.82 5.078M247.16 110.023l-9.308 5.965" stroke-width="1.2" stroke="#000" stroke-miterlimit="10" fill="none"/><path d="M237.852 115.988l-9.305 5.965M228.547 121.953l-9.82-5.078" stroke-width="1.2" stroke="#00f" stroke-miterlimit="10" fill="none"/><path d="M218.727 116.875l-9.817-5.078" stroke-width="1.2" stroke="#000" stroke-miterlimit="10" fill="none"/><path d="M228.973 116.316l-7.856-4.062" stroke-width="1.2" stroke="#00f" stroke-miterlimit="10" fill="none"/><path d="M221.117 112.254l-7.855-4.063" stroke-width="1.2" stroke="#000" stroke-miterlimit="10" fill="none"/><path d="M225.547 116.453h7v11h-7zm0 0" fill="#fff"/><use xlink:href="#a" x="225.547" y="125.116" fill="#00f"/><path d="M208.91 111.797l-1.023-22.086M208.91 111.797l-18.613 11.926M207.887 89.71l9.304-5.96" stroke-width="1.2" stroke="#000" stroke-miterlimit="10" fill="none"/><path d="M217.19 83.75l9.31-5.965" stroke-width="1.2" stroke="#00f" stroke-miterlimit="10" fill="none"/><path d="M212.555 92.898l7.445-4.77" stroke-width="1.2" stroke="#000" stroke-miterlimit="10" fill="none"/><path d="M220 88.13l7.445-4.77" stroke-width="1.2" stroke="#00f" stroke-miterlimit="10" fill="none"/><path d="M223.5 72.285h7v11h-7zm0 0" fill="#fff"/><use xlink:href="#a" x="223.5" y="80.948" fill="#00f"/><path d="M190.297 123.723l.508 11.043" stroke-width="1.2" stroke="#000" stroke-miterlimit="10" fill="none"/><path d="M190.805 134.766l.51 11.043M191.316 145.81l-9.304 5.96" stroke-width="1.2" stroke="#00f" stroke-miterlimit="10" fill="none"/><path d="M182.012 151.77l-9.31 5.964" stroke-width="1.2" stroke="#000" stroke-miterlimit="10" fill="none"/><path d="M184.316 140.31h14v11h-14zm0 0" fill="#fff"/><g fill="#00f"><use xlink:href="#a" x="184.316" y="148.972"/><use xlink:href="#b" x="191.294" y="148.972"/></g><path d="M172.703 157.734l-9.816-5.078" stroke-width="1.2" stroke="#000" stroke-miterlimit="10" fill="none"/><path d="M162.887 152.656l-9.82-5.078" stroke-width="1.2" stroke="#00f" stroke-miterlimit="10" fill="none"/><path d="M168.352 161.34l-7.856-4.063" stroke-width="1.2" stroke="#000" stroke-miterlimit="10" fill="none"/><path d="M160.496 157.277l-7.855-4.062" stroke-width="1.2" stroke="#00f" stroke-miterlimit="10" fill="none"/><path d="M173.727 179.82l-1.024-22.086" stroke-width="1.2" stroke="#000" stroke-miterlimit="10" fill="none"/><path d="M153.066 147.578l-9.304 5.965" stroke-width="1.2" stroke="#00f" stroke-miterlimit="10" fill="none"/><path d="M143.762 153.543l-9.31 5.965" stroke-width="1.2" stroke="#000" stroke-miterlimit="10" fill="none"/><path d="M150.066 142.078h7v11h-7zm0 0" fill="#fff"/><use xlink:href="#a" x="150.066" y="150.741" fill="#00f"/><path d="M134.453 159.508l.512 11.04" stroke-width="1.2" stroke="#000" stroke-miterlimit="10" fill="none"/><path d="M134.965 170.547l.512 11.043" stroke-width="1.2" stroke="#00f" stroke-miterlimit="10" fill="none"/><path d="M139.754 161.473l.406 8.836" stroke-width="1.2" stroke="#000" stroke-miterlimit="10" fill="none"/><path d="M140.16 170.31l.41 8.83" stroke-width="1.2" stroke="#00f" stroke-miterlimit="10" fill="none"/><path d="M134.453 159.508l-19.637-10.16" stroke-width="1.2" stroke="#000" stroke-miterlimit="10" fill="none"/><path d="M135.477 181.59l9.816 5.078" stroke-width="1.2" stroke="#00f" stroke-miterlimit="10" fill="none"/><path d="M145.293 186.668l9.82 5.078" stroke-width="1.2" stroke="#000" stroke-miterlimit="10" fill="none"/><path d="M132.477 176.09h7v11h-7zm0 0" fill="#fff"/><use xlink:href="#a" x="132.477" y="184.753" fill="#00f"/><path d="M155.113 191.746l1.024 22.082M160.41 193.715l.82 17.664M173.727 179.82l-18.614 11.926M156.137 213.828l19.636 10.156M175.773 223.984l18.614-11.925M174.828 218.414l14.89-9.543M194.387 212.06l-1.024-22.083M193.363 189.977l-19.636-10.157M189.008 193.578l-15.707-8.125M114.816 149.348l-1.02-22.082M109.52 147.383l-.817-17.668M96.203 161.277l18.613-11.93M113.797 127.266L94.16 117.11M94.16 117.11l-18.613 11.925M95.105 122.684l-14.894 9.54M75.547 129.035l1.02 22.086M75.547 129.035L55.91 118.88M76.566 151.12l19.637 10.157M80.922 147.516l15.707 8.125M54.504 116.69l-9.305 5.966" stroke-width="1.2" stroke="#000" stroke-miterlimit="10" fill="none"/><path d="M45.2 122.656l-9.31 5.96" stroke-width="1.2" stroke="#f00" stroke-miterlimit="10" fill="none"/><path d="M57.313 121.07l-9.31 5.965" stroke-width="1.2" stroke="#000" stroke-miterlimit="10" fill="none"/><path d="M48.004 127.035l-9.305 5.96" stroke-width="1.2" stroke="#f00" stroke-miterlimit="10" fill="none"/><path d="M55.91 118.88l-.512-11.04" stroke-width="1.2" stroke="#000" stroke-miterlimit="10" fill="none"/><path d="M55.398 107.84l-.51-11.043" stroke-width="1.2" stroke="#00f" stroke-miterlimit="10" fill="none"/><path d="M29.297 125.31h8v11h-8zm0 0" fill="#fff"/><use xlink:href="#c" x="29.297" y="133.972" fill="#f00"/><path d="M54.887 96.797l-9.82-5.078" stroke-width="1.2" stroke="#00f" stroke-miterlimit="10" fill="none"/><path d="M45.066 91.72l-9.816-5.08" stroke-width="1.2" stroke="#000" stroke-miterlimit="10" fill="none"/><path d="M54.887 96.797l9.304-5.965" stroke-width="1.2" stroke="#00f" stroke-miterlimit="10" fill="none"/><path d="M64.19 90.832l9.31-5.96" stroke-width="1.2" stroke="#000" stroke-miterlimit="10" fill="none"/><path d="M51.887 91.297h7v11h-7zm0 0" fill="#fff"/><use xlink:href="#a" x="51.887" y="99.96" fill="#00f"/></g></svg>
